X: 05040
T: JOAN'S REEL
C: Bob McQuillen 21 Dec 80
B: Bob's Note Book 5 #40
%R: reel
Z: 2021 John Chambers <jc:trillian.mit.edu>
M: C
L: 1/8
K: D
de \
| fdAF DFAd | fdge f2gf | ecAc ecde | fgfe A2de |\
| fdAF DFAd | fdge fdgf | edef egfe | d2f2 d2 :|
|: fg \
| afdf dAdf | abaf d2ef | gfed cABc | dfab a2fg |\
| afdf dAdf | afab afdB | ABdf geag | f2d2 d2 :|
%%begintext align
%% Joan O'Donnell
%% has to be one of our greatest enthusiasts.
%% She sure loves the music. Here's a
%% tune all your own, Joanie!
%%endtext

%%sep 1 1 500

%%sep 1 1 500

